logos/retool.svg

<?xml version="1.0" encoding="UTF-8"?>
<svg width="512px" height="110px" viewBox="0 0 512 110" version="1.1" xmlns="http://www.w3.org/2000/svg" xmlns:xlink="http://www.w3.org/1999/xlink" preserveAspectRatio="xMidYMid">
    <title>Retool</title>
    <g fill="#262626">
				<path d="M104.688,91.4285714 C107.463771,91.4285714 109.714286,93.6790857 109.714286,96.4548571 L109.714286,99.6612571 C109.714286,105.213257 105.213257,109.714286 99.6612571,109.714286 L60.3387429,109.714286 C54.7867429,109.714286 50.2857143,105.213257 50.2857143,99.6612571 L50.2857143,96.4548571 C50.2857143,93.6790857 52.5362286,91.4285714 55.312,91.4285714 L104.688,91.4285714 Z M99.6612571,36.5714286 C105.213257,36.5714286 109.714286,41.0722743 109.714286,46.6244571 L109.714286,72.688 C109.714286,75.4637714 107.463771,77.7142857 104.688,77.7142857 L10.0528914,77.7142857 C4.50082743,77.7142857 0,73.2132571 0,67.6612571 L0,41.5978514 C0,38.8218514 2.25041371,36.5714286 5.02642286,36.5714286 L99.6612571,36.5714286 Z M49.3755429,0 C54.9275429,0 59.4285714,4.50082286 59.4285714,10.0528914 L59.4285714,17.83072 C59.4285714,20.60672 57.1780571,22.8571429 54.4022857,22.8571429 L5.02642286,22.8571429 C2.25041371,22.8571429 0,20.60672 0,17.83072 L0,10.0528457 C0,4.50082286 4.50082286,0 10.0528914,0 L49.3755429,0 Z"></path>
				<path d="M261.854171,31.7864686 C281.981714,31.7864686 292.926171,46.6304 292.926171,65.3746286 L292.926171,65.3746286 L292.926171,70.6578286 L248.016457,70.6578286 C249.400229,79.7156571 254.809143,84.8731429 262.4832,84.8731429 C268.773029,84.8731429 273.679086,81.8541714 275.566171,76.0672 L275.566171,76.0672 L292.422857,81.4765714 C287.5168,94.1824 275.44,100.849371 262.231314,100.849371 C242.229486,100.849371 228.6432,86.8859429 228.6432,66.2550857 C228.6432,46.6304 242.7328,31.7864686 261.854171,31.7864686 Z M376.718171,31.7864686 C396.217143,31.7864686 409.928686,45.7499429 409.928686,66.3808 C409.928686,87.0116571 396.217143,100.849371 376.718171,100.849371 C357.093943,100.849371 343.507657,87.0116571 343.507657,66.3808 C343.507657,45.7499429 357.093943,31.7864686 376.718171,31.7864686 Z M449.199543,31.7864686 C468.699429,31.7864686 482.409143,45.7499429 482.409143,66.3808 C482.409143,87.0116571 468.699429,100.849371 449.199543,100.849371 C429.574857,100.849371 415.988571,87.0116571 415.988571,66.3808 C415.988571,45.7499429 429.574857,31.7864686 449.199543,31.7864686 Z M324.210286,14.8037486 L324.210286,33.17024 L337.167543,33.17024 L337.167543,49.7755429 L324.210286,49.7755429 L324.210286,76.5705143 C324.210286,82.1056 327.104,83.1117714 332.135771,83.1117714 C334.525714,83.1117714 335.658057,82.9860571 337.922286,82.7346286 L337.922286,82.7346286 L337.922286,99.2141714 C334.4,99.7174857 330.626286,100.094629 325.845943,100.094629 C311.504914,100.094629 304.334629,95.3142857 304.334629,81.728 L304.334629,81.728 L304.334629,49.7755429 L295.905829,49.7755429 L295.905829,33.17024 L304.334629,33.17024 L304.334629,14.8037486 L324.210286,14.8037486 Z M188.973714,9.14285714 C210.2336,9.14285714 223.442286,19.33248 223.442286,38.2021486 C223.442286,51.6626286 216.397714,60.9714286 204.321371,65.1227429 L204.321371,65.1227429 L226.084114,99.4656 L202.056686,99.4656 L182.432457,67.3874286 L171.8656,67.3874286 L171.8656,99.4656 L150.857143,99.4656 L150.857143,9.14285714 Z M512,9.14285714 L512,99.4656 L491.872,99.4656 L491.872,9.14285714 L512,9.14285714 Z M376.718171,48.2660571 C368.667429,48.2660571 363.509486,54.8073143 363.509486,66.3808 C363.509486,77.9542857 368.667429,84.4955429 376.718171,84.4955429 C384.769371,84.4955429 389.926857,77.9542857 389.926857,66.3808 C389.926857,54.8073143 384.769371,48.2660571 376.718171,48.2660571 Z M449.199543,48.2660571 C441.148343,48.2660571 435.990857,54.8073143 435.990857,66.3808 C435.990857,77.9542857 441.148343,84.4955429 449.199543,84.4955429 C457.252571,84.4955429 462.409143,77.9542857 462.409143,66.3808 C462.409143,54.8073143 457.252571,48.2660571 449.199543,48.2660571 Z M261.602286,47.3856 C255.438171,47.3856 250.657829,51.0336 248.645486,58.3296 L248.645486,58.3296 L273.050057,58.3296 C272.924343,52.4173714 269.024457,47.3856 261.602286,47.3856 Z M187.841829,26.8803657 L171.8656,26.8803657 L171.8656,50.2788571 L187.841829,50.2788571 C197.779657,50.2788571 202.811429,45.8756571 202.811429,38.5795657 C202.811429,31.1574857 197.779657,26.8803657 187.841829,26.8803657 L187.841829,26.8803657 Z"></path>
    </g>
</svg>

<svg preserveAspectRatio="xMidYMid" viewBox="0 0 512 110" xmlns="http://www.w3.org/2000/svg">
  <g fill="#262626">
    <path d="M104.688 91.429a5.027 5.027 0 0 1 5.026 5.026v3.206c0 5.552-4.5 10.053-10.053 10.053H60.34c-5.552 0-10.053-4.5-10.053-10.053v-3.206a5.027 5.027 0 0 1 5.026-5.026h49.376ZM99.661 36.57c5.552 0 10.053 4.501 10.053 10.053v26.064a5.027 5.027 0 0 1-5.026 5.026H10.053C4.5 77.714 0 73.214 0 67.661V41.598a5.026 5.026 0 0 1 5.026-5.027h94.635ZM49.376 0c5.552 0 10.053 4.5 10.053 10.053v7.778a5.026 5.026 0 0 1-5.027 5.026H5.026A5.026 5.026 0 0 1 0 17.831v-7.778C0 4.5 4.5 0 10.053 0h39.323Z"/>
    <path d="M261.854 31.786c20.128 0 31.072 14.844 31.072 33.589v5.283h-44.91c1.384 9.058 6.793 14.215 14.467 14.215 6.29 0 11.196-3.019 13.083-8.806l16.857 5.41c-4.906 12.705-16.983 19.372-30.192 19.372-20.002 0-33.588-13.963-33.588-34.594 0-19.625 14.09-34.469 33.211-34.469Zm114.864 0c19.5 0 33.21 13.964 33.21 34.595 0 20.63-13.71 34.468-33.21 34.468-19.624 0-33.21-13.837-33.21-34.468 0-20.631 13.586-34.595 33.21-34.595Zm72.482 0c19.5 0 33.21 13.964 33.21 34.595 0 20.63-13.71 34.468-33.21 34.468-19.625 0-33.211-13.837-33.211-34.468 0-20.631 13.586-34.595 33.21-34.595ZM324.21 14.804V33.17h12.958v16.606H324.21V76.57c0 5.535 2.894 6.54 7.926 6.54 2.39 0 3.522-.125 5.786-.376v16.48c-3.522.502-7.296.88-12.076.88-14.341 0-21.511-4.78-21.511-18.367V49.776h-8.43V33.17h8.43V14.804h19.875ZM188.974 9.143c21.26 0 34.468 10.19 34.468 29.06 0 13.46-7.044 22.768-19.12 26.92l21.762 34.343h-24.027l-19.625-32.079h-10.566v32.079h-21.009V9.143Zm323.026 0v90.323h-20.128V9.143H512ZM376.718 48.266c-8.05 0-13.209 6.541-13.209 18.115 0 11.573 5.158 18.115 13.21 18.115 8.05 0 13.208-6.542 13.208-18.115 0-11.574-5.158-18.115-13.209-18.115Zm72.482 0c-8.052 0-13.21 6.541-13.21 18.115 0 11.573 5.158 18.115 13.21 18.115 8.053 0 13.21-6.542 13.21-18.115 0-11.574-5.157-18.115-13.21-18.115Zm-187.598-.88c-6.164 0-10.944 3.648-12.957 10.944h24.405c-.126-5.913-4.026-10.944-11.448-10.944Zm-73.76-20.506h-15.976v23.4h15.976c9.938 0 14.97-4.403 14.97-11.7 0-7.422-5.032-11.699-14.97-11.699Z"/>
  </g>
</svg>
